icons/svg/sport/basketball.svg

<?xml version="1.0" encoding="UTF-8" standalone="no"?>
<!-- Created with Inkscape (http://www.inkscape.org/) -->

<svg
   xmlns:dc="http://purl.org/dc/elements/1.1/"
   xmlns:cc="http://creativecommons.org/ns#"
   xmlns:rdf="http://www.w3.org/1999/02/22-rdf-syntax-ns#"
   xmlns:svg="http://www.w3.org/2000/svg"
   xmlns="http://www.w3.org/2000/svg"
   xmlns:sodipodi="http://sodipodi.sourceforge.net/DTD/sodipodi-0.dtd"
   xmlns:inkscape="http://www.inkscape.org/namespaces/inkscape"
   version="1.0"
   width="580"
   height="580"
   id="svg2"
   sodipodi:version="0.32"
   inkscape:version="0.48.4 r9939"
   sodipodi:docname="volleyball.svg"
   inkscape:output_extension="org.inkscape.output.svg.inkscape">
  <metadata
     id="metadata2975">
    <rdf:RDF>
      <cc:Work
         rdf:about="">
        <dc:format>image/svg+xml</dc:format>
        <dc:type
           rdf:resource="http://purl.org/dc/dcmitype/StillImage" />
        <cc:license
           rdf:resource="http://web.resource.org/cc/PublicDomain" />
        <dc:language>en</dc:language>
        <dc:title></dc:title>
      </cc:Work>
    </rdf:RDF>
  </metadata>
  <sodipodi:namedview
     inkscape:window-height="1004"
     inkscape:window-width="1920"
     inkscape:pageshadow="2"
     inkscape:pageopacity="0.0"
     guidetolerance="10.0"
     gridtolerance="10.0"
     objecttolerance="10.0"
     borderopacity="1.0"
     bordercolor="#666666"
     pagecolor="#ffffff"
     id="base"
     inkscape:zoom="0.65172414"
     inkscape:cx="253.21411"
     inkscape:cy="346.31336"
     inkscape:window-x="1680"
     inkscape:window-y="0"
     inkscape:current-layer="svg2"
     showgrid="false"
     inkscape:window-maximized="1" />
  <defs
     id="defs4">
    <inkscape:perspective
       sodipodi:type="inkscape:persp3d"
       inkscape:vp_x="0 : 290 : 1"
       inkscape:vp_y="0 : 1000 : 0"
       inkscape:vp_z="580 : 290 : 1"
       inkscape:persp3d-origin="290 : 193.33333 : 1"
       id="perspective10" />
  </defs>
  <g
     id="g1327">
    <path
       d="M 66.275,1.768 C 24.94,1.768 1.704,23.139 1.704,66.804 l 0,450.123 c 0,40.844 20.895,62.229 62.192,62.229 l 452.024,0 c 41.307,0 62.229,-20.315 62.229,-62.229 l 0,-450.123 c 0,-42.601 -20.922,-65.036 -63.521,-65.036 -0.004,0 -448.495,-0.143 -448.353,0 z"
       style="fill:#111111;stroke:#eeeeee;stroke-width:3.40799999"
       id="path1329"
       inkscape:connector-curvature="0" />
  </g>
  <g
     transform="matrix(21.83159,0,0,21.83159,28.02092,28.02092)"
     id="g3"
     style="fill:#ffffff;fill-opacity:1;stroke:none">
    <path
       inkscape:connector-curvature="0"
       d="m 12,4 c 4.4,0 8,3.6 8,8 0,4.4 -3.6,8 -8,8 C 7.6,20 4,16.4 4,12 4,7.6 7.6,4 12,4 M 12,2 C 6.5,2 2,6.5 2,12 2,17.5 6.5,22 12,22 17.5,22 22,17.5 22,12 22,6.5 17.5,2 12,2 l 0,0 z"
       id="path5"
       style="fill:#ffffff;fill-opacity:1;stroke:none" />
  </g>
  <path
     style="fill:none;stroke:#ffffff;stroke-width:43.6631813;stroke-linecap:round;stroke-linejoin:round;stroke-miterlimit:10;stroke-opacity:1"
     inkscape:connector-curvature="0"
     stroke-miterlimit="10"
     d="m 420.98955,148.09467 c 0,0 -98.24217,61.12844 -85.1432,176.83588 8.73263,80.77688 87.32635,109.15794 87.32635,109.15794"
     id="path7" />
  <path
     style="fill:none;stroke:#ffffff;stroke-width:43.6631813;stroke-linecap:round;stroke-linejoin:round;stroke-miterlimit:10;stroke-opacity:1"
     inkscape:connector-curvature="0"
     stroke-miterlimit="10"
     d="m 156.8273,159.01046 c 0,0 24.01475,52.39582 24.01475,148.45481 0,67.67793 -26.1979,120.07375 -26.1979,120.07375"
     id="path9" />
  <path
     style="fill:none;stroke:#ffffff;stroke-width:43.6631813;stroke-linecap:round;stroke-linejoin:round;stroke-miterlimit:10;stroke-opacity:1"
     inkscape:connector-curvature="0"
     stroke-miterlimit="10"
     d="m 102.24832,261.61894 c 0,0 50.21266,50.21264 187.75168,50.21264 137.53902,0 187.75168,-50.21264 187.75168,-50.21264"
     id="path11" />
  <path
     style="fill:none;stroke:#ffffff;stroke-width:43.6631813;stroke-linecap:round;stroke-linejoin:round;stroke-miterlimit:10;stroke-opacity:1"
     inkscape:connector-curvature="0"
     stroke-miterlimit="10"
     d="m 296.54948,102.24832 c 0,0 -50.21266,61.12845 -50.21266,187.75168 0,126.62322 50.21266,187.75168 50.21266,187.75168"
     id="path13" />
</svg>

<svg width="580" height="580" viewBox="0 0 580 580" fill="none" xmlns="http://www.w3.org/2000/svg">
<g clip-path="url(#clip0)">
<path d="M66.2751 1.76815C24.9401 1.76815 1.7041 23.1391 1.7041 66.8041V516.927C1.7041 557.771 22.5991 579.156 63.8961 579.156H515.92C557.227 579.156 578.149 558.841 578.149 516.927V66.8041C578.149 24.2031 557.227 1.76815 514.628 1.76815C514.624 1.76815 66.1331 1.62515 66.2751 1.76815V1.76815Z" fill="#111111" stroke="#EEEEEE" stroke-width="3.408"/>
<path d="M290 115.347C386.059 115.347 464.653 193.941 464.653 290C464.653 386.059 386.059 464.653 290 464.653C193.941 464.653 115.347 386.059 115.347 290C115.347 193.941 193.941 115.347 290 115.347ZM290 71.6841C169.926 71.6841 71.6841 169.926 71.6841 290C71.6841 410.074 169.926 508.316 290 508.316C410.074 508.316 508.316 410.074 508.316 290C508.316 169.926 410.074 71.6841 290 71.6841Z" fill="white"/>
<path d="M420.99 148.095C420.99 148.095 322.748 209.223 335.846 324.931C344.579 405.707 423.173 434.089 423.173 434.089" stroke="white" stroke-width="43.6632" stroke-miterlimit="10" stroke-linecap="round" stroke-linejoin="round"/>
<path d="M156.827 159.01C156.827 159.01 180.842 211.406 180.842 307.465C180.842 375.143 154.644 427.539 154.644 427.539" stroke="white" stroke-width="43.6632" stroke-miterlimit="10" stroke-linecap="round" stroke-linejoin="round"/>
<path d="M102.249 261.619C102.249 261.619 152.461 311.832 290 311.832C427.539 311.832 477.752 261.619 477.752 261.619" stroke="white" stroke-width="43.6632" stroke-miterlimit="10" stroke-linecap="round" stroke-linejoin="round"/>
<path d="M296.55 102.249C296.55 102.249 246.337 163.377 246.337 290C246.337 416.623 296.55 477.752 296.55 477.752" stroke="white" stroke-width="43.6632" stroke-miterlimit="10" stroke-linecap="round" stroke-linejoin="round"/>
</g>
<defs>
<clipPath id="clip0">
<path d="M0 0H580V580H0V0Z" fill="white"/>
</clipPath>
</defs>
</svg>
